dist/images/chat/chat-header_78ee29c1.svg

<?xml version="1.0" encoding="UTF-8"?>
<svg width="300px" height="60px" viewBox="0 0 300 60" version="1.1" xmlns="http://www.w3.org/2000/svg" xmlns:xlink="http://www.w3.org/1999/xlink">
    <!-- Generator: Sketch 61 (89581) - https://sketch.com -->
    <title>Group 8</title>
    <desc>Created with Sketch.</desc>
    <g id="Page-3" stroke="none" stroke-width="1" fill="none" fill-rule="evenodd">
        <g id="Landing-page" transform="translate(-1140.000000, -5546.000000)">
            <g id="Group-8" transform="translate(1140.000000, 5546.000000)">
                <rect id="Rectangle" fill="#F3F3F3" fill-rule="nonzero" x="0" y="0" width="300" height="60"></rect>
                <rect id="Rectangle" fill="#5AC8BD" fill-rule="nonzero" x="0" y="50" width="300" height="10"></rect>
                <path d="M73.7792969,33 L73.7792969,24.5800781 L78.9121094,33 L81.5488281,33 L81.5488281,20.203125 L78.9208984,20.203125 L78.9208984,28.640625 L73.7792969,20.203125 L71.1425781,20.203125 L71.1425781,33 L73.7792969,33 Z M88.0675234,33.1757812 C88.8585391,33.1757812 89.5792422,33.0249023 90.2296328,32.7231445 C90.8800234,32.4213867 91.3956484,32.0009766 91.7765078,31.4619141 L91.7765078,31.4619141 L90.5284609,30.0644531 C89.9776797,30.7734375 89.2130312,31.1279297 88.2345156,31.1279297 C87.6017031,31.1279297 87.0787539,30.9404297 86.665668,30.5654297 C86.252582,30.1904297 86.0050234,29.6923828 85.9229922,29.0712891 L85.9229922,29.0712891 L91.9786562,29.0712891 L91.9786562,28.0341797 C91.9786562,26.5283203 91.6051211,25.3652344 90.8580508,24.5449219 C90.1109805,23.7246094 89.0870547,23.3144531 87.7862734,23.3144531 C86.9190859,23.3144531 86.1471133,23.5180664 85.4703555,23.925293 C84.7935977,24.3325195 84.2706484,24.9125977 83.9015078,25.6655273 C83.5323672,26.418457 83.3477969,27.2724609 83.3477969,28.2275391 L83.3477969,28.2275391 L83.3477969,28.4736328 C83.3477969,29.8974609 83.7857852,31.0371094 84.6617617,31.8925781 C85.5377383,32.7480469 86.6729922,33.1757812 88.0675234,33.1757812 Z M89.4825625,27.3398438 L85.9493594,27.3398438 C86.03725,26.7070312 86.2379336,26.2207031 86.5514102,25.8808594 C86.8648867,25.5410156 87.2735781,25.3710938 87.7774844,25.3710938 C88.3165469,25.3710938 88.7325625,25.5249023 89.0255312,25.8325195 C89.3185,26.1401367 89.4708437,26.5751953 89.4825625,27.1376953 L89.4825625,27.1376953 L89.4825625,27.3398438 Z M97.8030156,33.1757812 C98.5940312,33.1757812 99.3147344,33.0249023 99.965125,32.7231445 C100.615516,32.4213867 101.131141,32.0009766 101.512,31.4619141 L101.512,31.4619141 L100.263953,30.0644531 C99.7131719,30.7734375 98.9485234,31.1279297 97.9700078,31.1279297 C97.3371953,31.1279297 96.8142461,30.9404297 96.4011602,30.5654297 C95.9880742,30.1904297 95.7405156,29.6923828 95.6584844,29.0712891 L95.6584844,29.0712891 L101.714148,29.0712891 L101.714148,28.0341797 C101.714148,26.5283203 101.340613,25.3652344 100.593543,24.5449219 C99.8464727,23.7246094 98.8225469,23.3144531 97.5217656,23.3144531 C96.6545781,23.3144531 95.8826055,23.5180664 95.2058477,23.925293 C94.5290898,24.3325195 94.0061406,24.9125977 93.637,25.6655273 C93.2678594,26.418457 93.0832891,27.2724609 93.0832891,28.2275391 L93.0832891,28.2275391 L93.0832891,28.4736328 C93.0832891,29.8974609 93.5212773,31.0371094 94.3972539,31.8925781 C95.2732305,32.7480469 96.4084844,33.1757812 97.8030156,33.1757812 Z M99.2180547,27.3398438 L95.6848516,27.3398438 C95.7727422,26.7070312 95.9734258,26.2207031 96.2869023,25.8808594 C96.6003789,25.5410156 97.0090703,25.3710938 97.5129766,25.3710938 C98.0520391,25.3710938 98.4680547,25.5249023 98.7610234,25.8325195 C99.0539922,26.1401367 99.2063359,26.5751953 99.2180547,27.1376953 L99.2180547,27.1376953 L99.2180547,27.3398438 Z M106.475031,33.1757812 C107.471125,33.1757812 108.285578,32.7802734 108.918391,31.9892578 L108.918391,31.9892578 L109.041437,33 L111.335383,33 L111.335383,19.5 L108.786555,19.5 L108.786555,24.3515625 C108.183039,23.6601562 107.418391,23.3144531 106.492609,23.3144531 C105.338312,23.3144531 104.428645,23.7539062 103.763605,24.6328125 C103.098566,25.5117188 102.766047,26.6923828 102.766047,28.1748047 C102.766047,29.7451172 103.104426,30.9711914 103.781184,31.8530273 C104.457941,32.7348633 105.355891,33.1757812 106.475031,33.1757812 Z M107.125422,31.1191406 C106.533625,31.1191406 106.082453,30.8818359 105.771906,30.4072266 C105.461359,29.9326172 105.306086,29.25 105.306086,28.359375 C105.306086,26.3730469 105.918391,25.3798828 107.143,25.3798828 C107.922297,25.3798828 108.470148,25.7109375 108.786555,26.3730469 L108.786555,26.3730469 L108.786555,30.1259766 C108.464289,30.7880859 107.910578,31.1191406 107.125422,31.1191406 Z M120.27707,33 L120.27707,26.2412109 C120.611055,25.6669922 121.150117,25.3798828 121.894258,25.3798828 C122.43918,25.3798828 122.828828,25.5102539 123.063203,25.7709961 C123.297578,26.0317383 123.414766,26.4345703 123.414766,26.9794922 L123.414766,26.9794922 L123.414766,33 L125.954805,33 L125.954805,26.9091797 C125.925508,24.5126953 124.879609,23.3144531 122.817109,23.3144531 C121.797578,23.3144531 120.950898,23.71875 120.27707,24.5273438 L120.27707,24.5273438 L120.27707,19.5 L117.737031,19.5 L117.737031,33 L120.27707,33 Z M132.253773,33.1757812 C133.044789,33.1757812 133.765492,33.0249023 134.415883,32.7231445 C135.066273,32.4213867 135.581898,32.0009766 135.962758,31.4619141 L135.962758,31.4619141 L134.714711,30.0644531 C134.16393,30.7734375 133.399281,31.1279297 132.420766,31.1279297 C131.787953,31.1279297 131.265004,30.9404297 130.851918,30.5654297 C130.438832,30.1904297 130.191273,29.6923828 130.109242,29.0712891 L130.109242,29.0712891 L136.164906,29.0712891 L136.164906,28.0341797 C136.164906,26.5283203 135.791371,25.3652344 135.044301,24.5449219 C134.29723,23.7246094 133.273305,23.3144531 131.972523,23.3144531 C131.105336,23.3144531 130.333363,23.5180664 129.656605,23.925293 C128.979848,24.3325195 128.456898,24.9125977 128.087758,25.6655273 C127.718617,26.418457 127.534047,27.2724609 127.534047,28.2275391 L127.534047,28.2275391 L127.534047,28.4736328 C127.534047,29.8974609 127.972035,31.0371094 128.848012,31.8925781 C129.723988,32.7480469 130.859242,33.1757812 132.253773,33.1757812 Z M133.668812,27.3398438 L130.135609,27.3398438 C130.2235,26.7070312 130.424184,26.2207031 130.73766,25.8808594 C131.051137,25.5410156 131.459828,25.3710938 131.963734,25.3710938 C132.502797,25.3710938 132.918812,25.5249023 133.211781,25.8325195 C133.50475,26.1401367 133.657094,26.5751953 133.668812,27.1376953 L133.668812,27.1376953 L133.668812,27.3398438 Z M140.292977,33 L140.292977,19.5 L137.744148,19.5 L137.744148,33 L140.292977,33 Z M144.930812,36.65625 L144.930812,32.1738281 C145.522609,32.8417969 146.298977,33.1757812 147.259914,33.1757812 C148.390773,33.1757812 149.288723,32.7348633 149.953762,31.8530273 C150.618801,30.9711914 150.95132,29.7978516 150.95132,28.3330078 L150.95132,28.3330078 L150.95132,28.2011719 C150.95132,26.6777344 150.626125,25.4824219 149.975734,24.6152344 C149.325344,23.7480469 148.414211,23.3144531 147.242336,23.3144531 C146.252102,23.3144531 145.449367,23.6835938 144.834133,24.421875 L144.834133,24.421875 L144.746242,23.4902344 L142.390773,23.4902344 L142.390773,36.65625 L144.930812,36.65625 Z M146.591945,31.1279297 C145.79507,31.1279297 145.241359,30.8144531 144.930812,30.1875 L144.930812,30.1875 L144.930812,26.2939453 C145.229641,25.6845703 145.777492,25.3798828 146.574367,25.3798828 C147.172023,25.3798828 147.62759,25.6201172 147.941066,26.1005859 C148.254543,26.5810547 148.411281,27.2636719 148.411281,28.1484375 C148.411281,30.1347656 147.804836,31.1279297 146.591945,31.1279297 Z M156.854781,29.0712891 L156.889937,28.5351562 C156.954391,27.9609375 157.209273,27.4599609 157.654586,27.0322266 L157.654586,27.0322266 L158.3665,26.3554688 C158.923141,25.8164062 159.312789,25.3256836 159.535445,24.8833008 C159.758102,24.440918 159.86943,23.9707031 159.86943,23.4726562 C159.86943,22.3769531 159.526656,21.5288086 158.841109,20.9282227 C158.155562,20.3276367 157.191695,20.0273438 155.949508,20.0273438 C154.719039,20.0273438 153.747848,20.34375 153.035934,20.9765625 C152.32402,21.609375 151.962203,22.4853516 151.950484,23.6044922 L151.950484,23.6044922 L154.499312,23.6044922 C154.511031,23.1357422 154.647262,22.7680664 154.908004,22.5014648 C155.168746,22.2348633 155.515914,22.1015625 155.949508,22.1015625 C156.86357,22.1015625 157.320602,22.5966797 157.320602,23.5869141 C157.320602,23.9150391 157.232711,24.2270508 157.05693,24.5229492 C156.881148,24.8188477 156.528121,25.2026367 155.997848,25.6743164 C155.467574,26.1459961 155.102828,26.625 154.903609,27.1113281 C154.704391,27.5976562 154.604781,28.2509766 154.604781,29.0712891 L154.604781,29.0712891 L156.854781,29.0712891 Z M155.773727,33.1054688 C156.201461,33.1054688 156.545699,32.9794922 156.806441,32.7275391 C157.067184,32.4755859 157.197555,32.15625 157.197555,31.7695312 C157.197555,31.3769531 157.064254,31.0532227 156.797652,30.7983398 C156.531051,30.543457 156.189742,30.4160156 155.773727,30.4160156 C155.357711,30.4160156 155.016402,30.543457 154.749801,30.7983398 C154.483199,31.0532227 154.349898,31.3769531 154.349898,31.7695312 C154.349898,32.15625 154.48027,32.4755859 154.741012,32.7275391 C155.001754,32.9794922 155.345992,33.1054688 155.773727,33.1054688 Z" id="Needhelp?" fill="#000000" fill-rule="nonzero"></path>
                <g id="icon/message" transform="translate(10.000000, 5.000000)">
                    <polygon id="Bounds" points="0 0 40 0 40 40 0 40"></polygon>
                    <g id="ic_feedback" stroke-width="1" fill-rule="evenodd">
                        <polygon id="Bounds" points="0 0 40 0 40 40 0 40"></polygon>
                        <path d="M31.6608008,3.33333333 C34.4289328,3.33333333 36.6666667,5.57197512 36.6666667,8.33347972 L36.6666667,8.33347972 L36.6666667,24.9998536 C36.6666667,27.7608517 34.4280249,30 31.6665203,30 L31.6665203,30 L10,30 L3.33333333,36.6666667 L3.34750483,8.32367013 C3.34888057,5.57218661 5.5912025,3.33333333 8.35586589,3.33333333 L8.35586589,3.33333333 Z M26.6666667,15 C25.7461921,15 25,15.7461921 25,16.6666667 C25,17.5871412 25.7461921,18.3333333 26.6666667,18.3333333 C27.5871412,18.3333333 28.3333333,17.5871412 28.3333333,16.6666667 C28.3333333,15.7461921 27.5871412,15 26.6666667,15 Z M20,15 C19.0795254,15 18.3333333,15.7461921 18.3333333,16.6666667 C18.3333333,17.5871412 19.0795254,18.3333333 20,18.3333333 C20.9204746,18.3333333 21.6666667,17.5871412 21.6666667,16.6666667 C21.6666667,15.7461921 20.9204746,15 20,15 Z M13.3333333,15 C12.4128588,15 11.6666667,15.7461921 11.6666667,16.6666667 C11.6666667,17.5871412 12.4128588,18.3333333 13.3333333,18.3333333 C14.2538079,18.3333333 15,17.5871412 15,16.6666667 C15,15.7461921 14.2538079,15 13.3333333,15 Z" id="Combined-Shape" fill="#02A090" fill-rule="nonzero"></path>
                    </g>
                </g>
            </g>
        </g>
    </g>
</svg>

<svg width="300" height="60" viewBox="0 0 300 60" version="1.1" xmlns="http://www.w3.org/2000/svg"><g id="Page-3" stroke="none" stroke-width="1" fill="none" fill-rule="evenodd"><g id="Landing-page" transform="translate(-1140 -5546)"><g id="Group-8" transform="translate(1140 5546)"><path id="Rectangle" fill="#F3F3F3" fill-rule="nonzero" d="M0 0h300v60H0z"/><path id="Rectangle" fill="#5AC8BD" fill-rule="nonzero" d="M0 50h300v10H0z"/><path d="M73.78 33v-8.42L78.911 33h2.637V20.203H78.92v8.438l-5.142-8.438h-2.636V33h2.636zm14.288.176c.79 0 1.511-.151 2.162-.453.65-.302 1.166-.722 1.547-1.261l-1.249-1.398c-.55.71-1.315 1.064-2.293 1.064-.633 0-1.156-.188-1.57-.563-.412-.375-.66-.873-.742-1.494h6.056v-1.037c0-1.506-.374-2.669-1.12-3.49-.748-.82-1.772-1.23-3.073-1.23-.867 0-1.639.204-2.316.611-.676.408-1.2.988-1.568 1.74-.37.753-.554 1.607-.554 2.563v.246c0 1.423.438 2.563 1.314 3.419.876.855 2.011 1.283 3.406 1.283zm1.415-5.836h-3.534c.088-.633.289-1.12.602-1.46.314-.339.723-.509 1.226-.509.54 0 .956.154 1.249.462.293.307.445.742.457 1.305v.202zm8.32 5.836c.791 0 1.512-.151 2.162-.453.65-.302 1.166-.722 1.547-1.261l-1.248-1.398c-.55.71-1.315 1.064-2.294 1.064-.633 0-1.156-.188-1.569-.563-.413-.375-.66-.873-.743-1.494h6.056v-1.037c0-1.506-.373-2.669-1.12-3.49-.748-.82-1.771-1.23-3.072-1.23-.867 0-1.64.204-2.316.611-.677.408-1.2.988-1.569 1.74-.37.753-.554 1.607-.554 2.563v.246c0 1.423.438 2.563 1.314 3.419.876.855 2.011 1.283 3.406 1.283zm1.415-5.836h-3.533c.088-.633.288-1.12.602-1.46.313-.339.722-.509 1.226-.509.539 0 .955.154 1.248.462.293.307.445.742.457 1.305v.202zm7.257 5.836c.996 0 1.81-.396 2.443-1.187l.123 1.011h2.294V19.5h-2.548v4.852c-.604-.692-1.369-1.038-2.294-1.038-1.155 0-2.064.44-2.73 1.319-.664.879-.997 2.06-.997 3.542 0 1.57.338 2.796 1.015 3.678.677.882 1.575 1.323 2.694 1.323zm.65-2.057c-.591 0-1.043-.237-1.353-.712-.31-.474-.466-1.157-.466-2.048 0-1.986.612-2.98 1.837-2.98.78 0 1.327.332 1.644.994v3.753c-.323.662-.876.993-1.662.993zM120.277 33v-6.759c.334-.574.873-.861 1.617-.861.545 0 .935.13 1.17.391.234.26.35.664.35 1.208V33h2.54v-6.09c-.028-2.397-1.074-3.596-3.137-3.596-1.02 0-1.866.405-2.54 1.213V19.5h-2.54V33h2.54zm11.977.176c.79 0 1.511-.151 2.162-.453.65-.302 1.166-.722 1.547-1.261l-1.248-1.398c-.551.71-1.316 1.064-2.294 1.064-.633 0-1.156-.188-1.57-.563-.412-.375-.66-.873-.742-1.494h6.056v-1.037c0-1.506-.374-2.669-1.12-3.49-.748-.82-1.772-1.23-3.072-1.23-.868 0-1.64.204-2.316.611-.677.408-1.2.988-1.57 1.74-.368.753-.553 1.607-.553 2.563v.246c0 1.423.438 2.563 1.314 3.419.876.855 2.011 1.283 3.406 1.283zm1.415-5.836h-3.533c.088-.633.288-1.12.602-1.46.313-.339.722-.509 1.226-.509.539 0 .955.154 1.248.462.293.307.445.742.457 1.305v.202zm6.624 5.66V19.5h-2.549V33h2.549zm4.638 3.656v-4.482c.592.668 1.368 1.002 2.329 1.002 1.13 0 2.029-.441 2.694-1.323.665-.882.997-2.055.997-3.52v-.132c0-1.523-.325-2.719-.975-3.586-.65-.867-1.562-1.3-2.734-1.3-.99 0-1.793.369-2.408 1.107l-.088-.932h-2.355v13.166h2.54zm1.66-5.528c-.796 0-1.35-.314-1.66-.94v-3.894c.299-.61.846-.914 1.643-.914.598 0 1.054.24 1.367.72.314.481.47 1.164.47 2.048 0 1.987-.606 2.98-1.82 2.98zm10.264-2.057l.035-.536c.064-.574.32-1.075.765-1.503l.712-.677c.556-.539.946-1.03 1.168-1.472.223-.442.334-.912.334-1.41 0-1.096-.342-1.944-1.028-2.545-.685-.6-1.65-.9-2.891-.9-1.231 0-2.202.316-2.914.949-.712.632-1.074 1.508-1.086 2.627h2.55c.011-.468.147-.836.408-1.103.26-.266.608-.4 1.042-.4.914 0 1.37.496 1.37 1.486 0 .328-.087.64-.263.936-.176.296-.529.68-1.06 1.151-.53.472-.894.951-1.093 1.437-.2.487-.3 1.14-.3 1.96h2.25zm-1.081 4.034c.427 0 .772-.126 1.032-.377.261-.252.392-.572.392-.958a1.29 1.29 0 00-.4-.972c-.267-.255-.608-.382-1.024-.382-.416 0-.758.127-1.024.382-.267.255-.4.579-.4.972 0 .386.13.706.391.958.26.251.605.377 1.033.377z" id="Needhelp?" fill="#000" fill-rule="nonzero"/><g id="icon/message" transform="translate(10 5)"><path id="Bounds" d="M0 0h40v40H0z"/><g id="ic_feedback" stroke-width="1" fill-rule="evenodd"><path id="Bounds" d="M0 0h40v40H0z"/><path d="M31.66 3.333a5 5 0 015.007 5V25a5 5 0 01-5 5H10l-6.667 6.667.015-28.343c0-2.752 2.243-4.99 5.008-4.99zM26.668 15a1.667 1.667 0 100 3.333 1.667 1.667 0 000-3.333zM20 15a1.667 1.667 0 100 3.333A1.667 1.667 0 0020 15zm-6.667 0a1.667 1.667 0 100 3.333 1.667 1.667 0 000-3.333z" id="Combined-Shape" fill="#02A090" fill-rule="nonzero"/></g></g></g></g></g></svg>
